assets/img/icons/duotone-icons/Design/Substract.svg

<?xml version="1.0" encoding="UTF-8"?>
<svg width="24px" height="24px" viewBox="0 0 24 24" version="1.1" xmlns="http://www.w3.org/2000/svg" xmlns:xlink="http://www.w3.org/1999/xlink">
    <!-- Generator: Sketch 52.2 (67145) - http://www.bohemiancoding.com/sketch -->
    <title>Stockholm-icons / Design / Substract</title>
    <desc>Created with Sketch.</desc>
    <g id="Stockholm-icons-/-Design-/-Substract" stroke="none" stroke-width="1" fill="none" fill-rule="evenodd">
        <rect id="bound" x="0" y="0" width="24" height="24"></rect>
        <path d="M6,9 L6,15 C6,16.6568542 7.34314575,18 9,18 L15,18 L15,18.8181818 C15,20.2324881 14.2324881,21 12.8181818,21 L5.18181818,21 C3.76751186,21 3,20.2324881 3,18.8181818 L3,11.1818182 C3,9.76751186 3.76751186,9 5.18181818,9 L6,9 Z" id="Combined-Shape" fill="#335EEA"></path>
        <path d="M10.1818182,4 L17.8181818,4 C19.2324881,4 20,4.76751186 20,6.18181818 L20,13.8181818 C20,15.2324881 19.2324881,16 17.8181818,16 L10.1818182,16 C8.76751186,16 8,15.2324881 8,13.8181818 L8,6.18181818 C8,4.76751186 8.76751186,4 10.1818182,4 Z" id="Rectangle-19-Copy-3" fill="#335EEA" opacity="0.3"></path>
    </g>
</svg>

<svg width="24" height="24" viewBox="0 0 24 24" xmlns="http://www.w3.org/2000/svg"><g fill="none" fill-rule="evenodd"><path d="M0 0h24v24H0z"/><path d="M6 9v6a3 3 0 003 3h6v.818C15 20.232 14.232 21 12.818 21H5.182C3.768 21 3 20.232 3 18.818v-7.636C3 9.768 3.768 9 5.182 9H6z" fill="#335EEA"/><path d="M10.182 4h7.636C19.232 4 20 4.768 20 6.182v7.636C20 15.232 19.232 16 17.818 16h-7.636C8.768 16 8 15.232 8 13.818V6.182C8 4.768 8.768 4 10.182 4z" fill="#335EEA" opacity=".3"/></g></svg>
